X: 27057
T: Miss Ida McVarish Of Morar
R: jig
M: 6/8
K: Gmajor
|:G3 GBd|c2d e3|dgg gdB|A3 cBA|
G3 Bdg|cdg gdc|Bcd dgB|1 A3 G3:|2 A3 GBd ]|
|:c2d e3|dgg gdB|A3 cBA|GBA GBd|
c2d e3|dgg gdc|Bcd dgB|1 A3 GBd:|2 A3 Gge ]|
|:dgg gdB|A3 cBA|G3 Bdg|cdg gde|
dgg gdB|A3 cBA|Bcd dgB|1 A3 Gge:|2 A3 GcB]|
|:A3 cBA|G3 GBd|c2d e3|dgg gdB|
A3 cBA|G3 Bdg|cdg gdB|1 A3 GcB:|2 A3 G3||

